_inc/systems/logos/c20.svg

<svg width="267" height="131" viewBox="0 0 267 131" fill="none" xmlns="http://www.w3.org/2000/svg">
<path d="M131.828 75.18H166.391L151.259 90.3567H131.829L131.828 75.18Z" fill="white"/>
<path d="M131.785 109.45H166.348L151.217 94.2736H131.787L131.785 109.45Z" fill="white"/>
<path d="M0.00274658 53.8183L10.8501 130.529H37.69L48.5387 53.7634H32.4278L24.2707 113.741L16.1124 53.762H0.130997C0.0703974 53.762 0.0704101 53.8789 0.0295407 53.9057L0.00274658 53.8183Z" fill="white"/>
<path d="M178.926 81.4615H192.631C192.639 68.8342 192.641 65.8959 195.985 65.8959C196.492 65.8367 198.374 65.9663 198.374 65.9663C201.658 65.8959 201.221 69.2232 201.298 84.025C201.518 89.6903 198.067 90.9094 192.169 93.7886C184.213 98.4984 178.696 100.715 178.974 107.831L178.838 129.332H215.431L215.433 117.758H192.983L192.639 110.693C192.639 108.709 193.908 108.308 203.752 102.494C216.896 94.73 215.026 95.0372 215.077 81.4488C214.772 58.2448 216.81 55.5263 197.001 55.5263C178.556 55.5263 179.226 58.2307 178.928 81.26L178.926 81.4615V81.4615Z" fill="white"/>
<path d="M247.883 54.0681C226.929 54.0681 229.545 58.4862 229.545 91.0507C229.549 91.6426 229.545 92.2162 229.545 92.7447C229.545 125.311 226.929 129.727 247.883 129.727C268.79 129.727 266.174 125.313 266.174 92.7447C266.17 92.1528 266.174 91.5792 266.174 91.0507C266.174 58.482 268.79 54.0681 247.883 54.0681V54.0681ZM247.897 64.9225C253.884 64.9366 253.883 67.6509 253.969 92.2275C253.883 116.851 253.883 119.499 247.795 119.531C241.665 119.494 241.655 116.935 241.888 92.2261C241.845 67.7411 241.91 64.9056 247.897 64.9211V64.9225Z" fill="white"/>
<path d="M131.715 129.511C128.417 130.335 125.03 130.749 121.631 130.745C101.671 130.229 83.7775 115.722 81.4804 96.0619C81.3295 94.7645 81.2477 93.46 81.2352 92.1539C81.8693 69.3432 101.423 53.8663 121.631 53.7282C125.002 53.7282 128.372 54.127 131.743 54.9036L131.722 72.9467C128.649 71.4219 125.287 70.6453 121.631 70.6693C109.775 70.744 99.4559 79.8522 99.3333 92.1539C99.7462 104.451 111.614 113.283 121.631 113.489C125.264 113.564 128.637 112.754 131.739 111.294L131.715 129.511Z" fill="white"/>
<path d="M57.4732 130.527H73.2051L73.4447 53.7633H57.3323V130.374C57.3323 130.527 57.3323 130.527 57.4704 130.527H57.4732Z" fill="white"/>
<path d="M17.8144 0.365234C7.95892 0.365234 0 8.35802 0 18.1797C0 28.0352 7.99278 35.9941 17.8144 35.9941C19.711 35.9941 21.5399 35.6893 23.2333 35.1474V26.2402C21.7431 27.0869 20.0158 27.5949 18.187 27.5949C12.7681 27.5949 8.3992 23.3614 8.3992 18.1797C8.3992 12.9979 12.802 8.76444 18.187 8.76444C20.0497 8.76444 21.7769 9.27245 23.2333 10.1191V1.21193C21.5399 0.670044 19.711 0.365234 17.8144 0.365234V0.365234Z" fill="white"/>
<path d="M30.7179 17.604H23.4025V11.4062H36.6786L30.7179 17.604Z" fill="white"/>
<path d="M30.7179 18.8571H23.4025V25.0549H36.6786L30.7179 18.8571Z" fill="white"/>
<path fill-rule="evenodd" clip-rule="evenodd" d="M30.354 7.06912C29.9732 7.44769 29.4665 7.65775 28.9275 7.65775C28.3908 7.65775 27.8864 7.44769 27.5044 7.06912C27.12 6.68709 26.9123 6.1804 26.9123 5.64256C26.9123 4.53109 27.8206 3.62738 28.9275 3.62738C29.4665 3.62738 29.9732 3.83628 30.354 4.21601C30.7338 4.59688 30.9438 5.10357 30.9438 5.64256C30.9438 6.1804 30.7338 6.68709 30.354 7.06912ZM27.7425 4.45707C27.4274 4.77332 27.2508 5.19459 27.2508 5.64241C27.2508 6.09138 27.4274 6.5115 27.7425 6.8289C28.0611 7.14399 28.48 7.32058 28.9278 7.32058C29.8546 7.32058 30.606 6.5669 30.606 5.64241C30.606 5.19459 30.4294 4.77332 30.1143 4.45707C29.7981 4.14084 29.3757 3.96425 28.9278 3.96425C28.48 3.96425 28.0611 4.14084 27.7425 4.45707Z" fill="white"/>
<path fill-rule="evenodd" clip-rule="evenodd" d="M29.8568 6.48051C29.8695 6.53245 29.8926 6.56707 29.9226 6.57862L29.9513 6.59241V6.72399H29.5185L29.5023 6.6963C29.4928 6.67906 29.4873 6.65926 29.4807 6.63592C29.4785 6.62799 29.4761 6.61966 29.4735 6.61089C29.4666 6.57857 29.462 6.52317 29.4573 6.43545L29.4401 6.0765C29.4355 5.95532 29.3927 5.87568 29.3131 5.83644C29.2658 5.81567 29.1827 5.80412 29.0719 5.80412H28.459V6.724H28.0712V4.48029H29.1134C29.2843 4.48029 29.4239 4.50337 29.5393 4.55535C29.7575 4.65346 29.8694 4.84043 29.8694 5.10589C29.8694 5.24439 29.8395 5.35866 29.7829 5.44868C29.7402 5.51562 29.6802 5.56872 29.6132 5.61257C29.6675 5.64489 29.7149 5.67952 29.746 5.72338C29.7944 5.78801 29.8233 5.88496 29.828 6.02115L29.8372 6.31085C29.8395 6.38702 29.8476 6.44358 29.8568 6.48051ZM29.3786 5.38855C29.4409 5.34238 29.4732 5.25928 29.4732 5.13347V5.13342C29.4732 5.00185 29.4293 4.91183 29.337 4.86566C29.2839 4.84026 29.21 4.82762 29.1212 4.82762H28.4587V5.46241H29.0831C29.2077 5.46241 29.307 5.43591 29.3786 5.38855Z" fill="white"/>
<path d="M65.8892 27.3506C68.0507 27.3506 69.78 26.7453 71.1634 25.6213C72.5468 24.4541 73.2384 22.8545 73.2817 20.7362C73.2384 18.6179 72.5468 16.9751 71.1634 15.8079C69.78 14.6407 68.0507 14.0787 65.8892 14.0787C63.7276 14.0787 61.9984 14.6839 60.615 15.8079C59.2316 16.9319 58.5399 18.6179 58.4967 20.7362C58.5399 22.8545 59.2316 24.4973 60.615 25.6213C61.9984 26.7453 63.7276 27.3506 65.8892 27.3506ZM65.8892 24.2812C64.8949 24.2379 64.16 23.8921 63.6844 23.2004C63.2089 22.5087 62.9927 21.6873 63.0359 20.693C63.0359 19.6987 63.2521 18.8773 63.6844 18.1856C64.1167 17.4939 64.8516 17.1481 65.8892 17.1048C66.8835 17.1481 67.6184 17.4939 68.094 18.1856C68.5695 18.8773 68.7857 19.6987 68.7424 20.693C68.7424 21.6441 68.5263 22.5087 68.094 23.2004C67.6184 23.8921 66.8835 24.2379 65.8892 24.2812Z" fill="white"/>
<path d="M75.0541 27.0479H79.4637V21.6873C79.4637 20.3472 79.6798 19.3096 80.1122 18.6612C80.5445 18.0127 81.1497 17.7101 81.9279 17.7101C82.5331 17.7101 83.0086 17.9695 83.268 18.445C83.5274 18.9205 83.7003 19.5258 83.7003 20.2607V27.0912H88.1099V21.7306C88.1099 20.3904 88.326 19.3529 88.7583 18.7044C89.1906 18.0559 89.7959 17.7533 90.574 17.7533C91.1793 17.7533 91.6548 18.0127 91.9142 18.4882C92.1736 18.9638 92.3465 19.569 92.3465 20.3039V27.1344H96.7561V19.6555C96.7993 17.9262 96.4967 16.5861 95.8914 15.5918C95.2862 14.6407 94.0757 14.1219 92.26 14.1219C91.3522 14.1219 90.4876 14.2948 89.7094 14.6839C88.9313 15.073 88.2828 15.6782 87.764 16.5428C87.4182 15.7215 86.8994 15.1162 86.2077 14.6839C85.516 14.2948 84.6946 14.0787 83.7868 14.0787C82.7925 14.0787 81.8414 14.2948 81.0632 14.7271C80.2418 15.1594 79.6366 15.8079 79.1611 16.7158H79.1178V14.3813H75.0974L75.0541 27.0479Z" fill="white"/>
<path d="M99.1337 27.0479H103.543V21.6873C103.543 20.3472 103.759 19.3096 104.192 18.6612C104.624 18.0127 105.229 17.7101 106.007 17.7101C106.613 17.7101 107.088 17.9695 107.348 18.445C107.607 18.9205 107.78 19.5258 107.78 20.2607V27.0912H112.189V21.7306C112.189 20.3904 112.406 19.3529 112.838 18.7044C113.27 18.0559 113.875 17.7533 114.654 17.7533C115.259 17.7533 115.734 18.0127 115.994 18.4882C116.253 18.9638 116.426 19.569 116.426 20.3039V27.1344H120.836V19.6555C120.879 17.9262 120.576 16.5861 119.971 15.5918C119.366 14.6407 118.155 14.1219 116.34 14.1219C115.432 14.1219 114.567 14.2948 113.789 14.6839C113.011 15.073 112.362 15.6782 111.844 16.5428C111.498 15.7215 110.979 15.1162 110.287 14.6839C109.596 14.2948 108.774 14.0787 107.866 14.0787C106.872 14.0787 105.921 14.2948 105.143 14.7271C104.321 15.1594 103.716 15.8079 103.241 16.7158H103.197V14.3813H99.1769L99.1337 27.0479Z" fill="white"/>
<path d="M129.958 27.3506C132.119 27.3506 133.848 26.7453 135.232 25.6213C136.615 24.4541 137.307 22.8545 137.35 20.7362C137.307 18.6179 136.615 16.9751 135.232 15.8079C133.848 14.6407 132.119 14.0787 129.958 14.0787C127.796 14.0787 126.067 14.6839 124.683 15.8079C123.3 16.9319 122.608 18.6179 122.565 20.7362C122.608 22.8545 123.3 24.4973 124.683 25.6213C126.067 26.7453 127.839 27.3506 129.958 27.3506ZM129.958 24.2812C128.963 24.2379 128.228 23.8921 127.753 23.2004C127.277 22.5087 127.061 21.6873 127.104 20.693C127.104 19.6987 127.32 18.8773 127.753 18.1856C128.185 17.4939 128.92 17.1481 129.958 17.1048C130.952 17.1481 131.687 17.4939 132.162 18.1856C132.638 18.8773 132.854 19.6987 132.811 20.693C132.811 21.6441 132.595 22.5087 132.162 23.2004C131.687 23.8921 130.995 24.2379 129.958 24.2812Z" fill="white"/>
<path d="M152.827 8.76141H148.417V15.981H148.374C147.812 15.246 147.163 14.7705 146.428 14.4679C145.693 14.1653 144.872 14.0356 144.007 14.0356C142.235 14.122 140.895 14.7705 139.987 16.0674C139.079 17.3644 138.604 18.8342 138.604 20.4338C138.604 22.3792 139.122 23.9787 140.073 25.2756C141.068 26.5725 142.494 27.2642 144.397 27.3075C145.434 27.3075 146.342 27.0481 147.12 26.5725C147.898 26.097 148.46 25.4918 148.763 24.7569H148.806V27.0481H152.87L152.827 8.76141ZM143.056 20.5634C143.056 19.6988 143.273 18.9639 143.748 18.3587C144.224 17.7534 144.872 17.4508 145.737 17.4076C146.558 17.4076 147.207 17.7534 147.682 18.3587C148.158 18.9639 148.417 19.7421 148.417 20.7364C148.417 21.6874 148.114 22.4656 147.639 23.0708C147.163 23.6761 146.515 23.9787 145.737 23.9787C144.915 23.9787 144.267 23.6328 143.791 23.0276C143.316 22.4224 143.056 21.601 143.056 20.5634V20.5634Z" fill="white"/>
<path d="M161.862 27.3506C164.024 27.3506 165.753 26.7453 167.136 25.6213C168.52 24.4541 169.211 22.8545 169.255 20.7362C169.211 18.6179 168.52 16.9751 167.136 15.8079C165.753 14.6407 164.024 14.0787 161.862 14.0787C159.7 14.0787 157.971 14.6839 156.588 15.8079C155.204 16.9751 154.513 18.6179 154.47 20.7362C154.513 22.8545 155.204 24.4973 156.588 25.6213C157.971 26.7453 159.744 27.3506 161.862 27.3506ZM161.862 24.2812C160.868 24.2379 160.133 23.8921 159.657 23.2004C159.225 22.5087 158.966 21.6873 159.009 20.693C159.009 19.6987 159.225 18.8773 159.657 18.1856C160.09 17.4939 160.824 17.1481 161.862 17.1048C162.856 17.1481 163.591 17.4939 164.067 18.1856C164.499 18.8773 164.759 19.6987 164.715 20.693C164.715 21.6441 164.499 22.5087 164.067 23.2004C163.635 23.8921 162.9 24.2379 161.862 24.2812Z" fill="white"/>
<path d="M180.365 14.2084C180.148 14.1651 179.889 14.1219 179.63 14.1219C179.37 14.0787 179.111 14.0787 178.851 14.0787C177.9 14.0787 177.122 14.3381 176.56 14.8136C175.955 15.2891 175.479 15.9376 175.09 16.7158H175.047V14.3813H171.027V27.0912H175.436V21.7306C175.436 20.4769 175.696 19.4825 176.258 18.7908C176.82 18.0991 177.598 17.7533 178.635 17.7533C178.895 17.7533 179.154 17.7533 179.37 17.7533C179.63 17.7533 179.846 17.7965 180.105 17.883L180.365 14.2084Z" fill="white"/>
<path d="M194.155 21.9901V21.1687C194.199 19.2233 193.68 17.5373 192.729 16.1971C191.735 14.8137 190.092 14.122 187.757 14.0356C185.725 14.0356 184.126 14.6408 182.872 15.7648C181.619 16.9321 180.97 18.5316 180.97 20.6499C181.013 22.7682 181.705 24.411 183.088 25.535C184.472 26.7022 186.201 27.2642 188.363 27.3075C189.184 27.3075 190.005 27.2643 190.783 27.1346C191.562 27.0049 192.34 26.7887 193.031 26.5293V23.4167C192.383 23.7625 191.691 24.0219 191.043 24.1516C190.394 24.3246 189.746 24.3678 189.141 24.3678C188.06 24.3678 187.195 24.1949 186.547 23.8058C185.898 23.4167 185.509 22.8115 185.38 21.9468L194.155 21.9901ZM185.293 19.4827C185.336 18.7478 185.553 18.0993 185.942 17.6238C186.331 17.105 186.936 16.8456 187.714 16.8456C188.579 16.8456 189.227 17.105 189.573 17.6238C189.962 18.1425 190.135 18.7478 190.135 19.4827H185.293Z" fill="white"/>
<path d="M49.1155 27.1775C47.2133 26.6588 45.7434 25.7941 44.533 24.454C43.3225 23.1138 42.7605 21.9034 42.4147 19.7418C41.7662 15.5052 43.5819 11.6144 47.0836 9.9284C48.8561 9.06378 51.2338 8.63147 53.6115 8.63147C55.0813 8.63147 56.3783 8.89086 57.5887 9.10701L57.1996 12.9113C57.1996 12.9113 56.897 12.8249 56.0324 12.6087C55.211 12.3926 54.3896 12.3061 53.5682 12.3061C51.9255 12.3061 50.3259 12.7384 49.2884 13.5598C46.8242 15.462 46.8242 20.4335 49.3748 22.5086C50.9312 23.8055 53.7412 24.2378 56.2486 23.5894L57.4158 23.2868L57.7616 27.1343C57.0267 27.3072 55.4704 27.6098 53.5682 27.6098C51.0608 27.6098 50.2827 27.5234 49.1155 27.1775V27.1775Z" fill="white"/>
<path fill-rule="evenodd" clip-rule="evenodd" d="M197.505 16.2975C197.243 16.5581 196.894 16.7028 196.523 16.7028C196.154 16.7028 195.806 16.5581 195.543 16.2975C195.279 16.0344 195.136 15.6855 195.136 15.3152C195.136 14.5499 195.761 13.9276 196.523 13.9276C196.894 13.9276 197.243 14.0715 197.505 14.3329C197.767 14.5952 197.912 14.9441 197.912 15.3152C197.912 15.6855 197.767 16.0344 197.505 16.2975ZM195.707 14.4988C195.49 14.7166 195.369 15.0067 195.369 15.315C195.369 15.6242 195.49 15.9134 195.707 16.132C195.927 16.3489 196.215 16.4705 196.524 16.4705C197.162 16.4705 197.679 15.9516 197.679 15.315C197.679 15.0067 197.557 14.7166 197.34 14.4988C197.123 14.2811 196.832 14.1595 196.524 14.1595C196.215 14.1595 195.927 14.2811 195.707 14.4988Z" fill="white"/>
<path fill-rule="evenodd" clip-rule="evenodd" d="M197.163 15.8924C197.172 15.9282 197.188 15.952 197.209 15.96L197.209 15.9599L197.228 15.9695V16.0601H196.93L196.919 16.041C196.913 16.0291 196.909 16.0155 196.904 15.9994C196.903 15.994 196.901 15.9882 196.899 15.9822C196.895 15.9599 196.892 15.9218 196.888 15.8614L196.876 15.6142C196.873 15.5308 196.844 15.476 196.789 15.4489C196.756 15.4346 196.699 15.4267 196.623 15.4267H196.201V16.0601H195.934V14.5151H196.652C196.769 14.5151 196.865 14.531 196.945 14.5668C197.095 14.6344 197.172 14.7631 197.172 14.9459C197.172 15.0413 197.151 15.12 197.113 15.1819C197.083 15.228 197.042 15.2646 196.996 15.2948C197.033 15.317 197.066 15.3409 197.087 15.3711C197.12 15.4156 197.14 15.4823 197.144 15.5761L197.15 15.7756C197.151 15.8281 197.157 15.867 197.163 15.8924ZM196.835 15.1408C196.878 15.109 196.9 15.0517 196.9 14.9651V14.9651C196.9 14.8744 196.87 14.8124 196.806 14.7806C196.769 14.7631 196.719 14.7544 196.657 14.7544H196.201V15.1917H196.631C196.717 15.1917 196.785 15.1734 196.835 15.1408Z" fill="white"/>
</svg>

<?xml version="1.0" encoding="UTF-8" standalone="no"?><svg fill="none" viewBox="0 0 267 131" version="1.1" id="svg6" xmlns="http://www.w3.org/2000/svg" xmlns:svg="http://www.w3.org/2000/svg"><path fill="currentColor" d="M131.83 75.18h34.56l-15.13 15.18h-19.43zm-.04 34.27h34.56l-15.13-15.18h-19.43zM0 53.82l10.85 76.7h26.84l10.85-76.76H32.43l-8.16 59.98-8.16-59.98H.13c-.06 0-.06.12-.1.15zm178.93 27.64h13.7c0-12.63.01-15.56 3.36-15.56.5-.06 2.38.07 2.38.07 3.29-.07 2.85 3.25 2.93 18.06.22 5.66-3.23 6.88-9.13 9.76-7.96 4.7-13.47 6.92-13.2 14.04l-.13 21.5h36.6v-11.57h-22.46l-.34-7.07c0-1.98 1.27-2.38 11.11-8.2 13.15-7.76 11.28-7.45 11.33-21.04-.3-23.2 1.73-25.92-18.08-25.92-18.44 0-17.77 2.7-18.07 25.73zm68.95-27.39c-20.95 0-18.34 4.42-18.34 36.98v1.7c0 32.56-2.61 36.98 18.34 36.98 20.91 0 18.3-4.42 18.3-36.99v-1.69c0-32.57 2.61-36.98-18.3-36.98m.02 10.85c5.98.02 5.98 2.73 6.07 27.3-.09 24.63-.09 27.28-6.18 27.31-6.12-.04-6.13-2.6-5.9-27.3-.04-24.49.02-27.32 6-27.3m-116.17 64.58a41 41 0 0 1-10.09 1.24c-19.96-.52-37.85-15.03-40.15-34.69q-.23-1.95-.24-3.9c.63-22.82 20.18-38.3 40.4-38.43q5.04 0 10.1 1.17l-.02 18.05a22 22 0 0 0-10.09-2.28c-11.85.07-22.17 9.18-22.3 21.48.42 12.3 12.28 21.13 22.3 21.34 3.63.07 7-.74 10.1-2.2zm-74.25 1.02h15.74l.23-76.77h-16.1v76.61c0 .16 0 .16.13.16M17.81.37a17.81 17.81 0 1 0 5.42 34.78v-8.91a10 10 0 0 1-5.04 1.35c-5.42 0-9.8-4.23-9.8-9.41s4.41-9.42 9.8-9.42c1.86 0 3.59.51 5.04 1.36v-8.9a18 18 0 0 0-5.42-.85M30.72 17.6H23.4v-6.2h13.28zm0 1.26H23.4v6.2h13.28z" id="path1" style="fill:#ffffff"/><path fill="currentColor" fill-rule="evenodd" d="M30.35 7.07a2.01 2.01 0 1 1-2.84-2.85 2.01 2.01 0 0 1 2.84 2.85m-2.6-2.61a1.67 1.67 0 0 0 1.18 2.86 1.68 1.68 0 1 0-1.19-2.86" clip-rule="evenodd" id="path2" style="fill:#ffffff"/><path fill="currentColor" fill-rule="evenodd" d="M29.86 6.48q0 .08.06.1l.03.01v.13h-.43l-.02-.02-.02-.06V6.6l-.02-.17-.02-.36q0-.18-.13-.24l-.24-.04h-.61v.92h-.39V4.48h1.04q.25 0 .43.08.33.15.33.55 0 .2-.09.34l-.17.16q.09.05.14.11.06.1.08.3v.3zm-.48-1.1q.1-.06.1-.25 0-.2-.14-.26l-.22-.04h-.66v.63h.62q.2 0 .3-.07" clip-rule="evenodd" id="path3" style="fill:#ffffff"/><path fill="currentColor" d="M65.89 27.35q3.22-.02 5.27-1.73 2.07-1.74 2.12-4.88-.05-3.18-2.12-4.93a7.8 7.8 0 0 0-5.27-1.73q-3.23.02-5.27 1.73c-1.39 1.12-2.08 2.8-2.12 4.93q.05 3.18 2.12 4.88a8 8 0 0 0 5.27 1.73m0-3.07q-1.5-.05-2.2-1.08-.72-1.03-.65-2.5 0-1.49.64-2.51.66-1.03 2.2-1.09 1.5.06 2.21 1.09.72 1.02.65 2.5a4.7 4.7 0 0 1-.65 2.51q-.7 1.04-2.2 1.08m9.16 2.77h4.41v-5.36c0-1.34.22-2.38.65-3.03a2 2 0 0 1 1.82-.95c.6 0 1.08.26 1.34.73q.41.72.43 1.82v6.83h4.41v-5.36c0-1.34.22-2.38.65-3.03a2 2 0 0 1 1.81-.95c.6 0 1.08.26 1.34.74.26.47.44 1.08.44 1.81v6.83h4.4v-7.47a7.4 7.4 0 0 0-.86-4.07c-.6-.95-1.81-1.47-3.63-1.47q-1.36-.01-2.55.56a4.7 4.7 0 0 0-1.95 1.86 4 4 0 0 0-1.55-1.86 5.6 5.6 0 0 0-5.14.04 4.5 4.5 0 0 0-1.9 2h-.05v-2.34H75.1zm24.08 0h4.41v-5.36c0-1.34.22-2.38.65-3.03a2 2 0 0 1 1.82-.95c.6 0 1.08.26 1.34.73q.41.72.43 1.82v6.83h4.4v-5.36c0-1.34.23-2.38.66-3.03a2 2 0 0 1 1.81-.95c.6 0 1.08.26 1.34.74.26.47.44 1.08.44 1.81v6.83h4.4v-7.47a7.4 7.4 0 0 0-.86-4.07c-.6-.95-1.81-1.47-3.63-1.47q-1.37-.01-2.55.56a4.7 4.7 0 0 0-1.95 1.86 4 4 0 0 0-1.55-1.86 5.6 5.6 0 0 0-5.14.04 4.5 4.5 0 0 0-1.9 2h-.05v-2.34h-4.02zm30.83.3q3.22-.02 5.27-1.73 2.07-1.74 2.12-4.88-.05-3.18-2.12-4.93a7.8 7.8 0 0 0-5.27-1.73q-3.22.02-5.28 1.73c-1.38 1.12-2.07 2.8-2.12 4.93q.06 3.18 2.12 4.88a8 8 0 0 0 5.28 1.73m0-3.07q-1.5-.05-2.2-1.08-.72-1.03-.66-2.5 0-1.49.65-2.51.66-1.03 2.2-1.09 1.5.06 2.21 1.09.72 1.02.65 2.5a4.7 4.7 0 0 1-.65 2.51c-.47.7-1.16 1.04-2.2 1.08m22.87-15.52h-4.41v7.22h-.05a4.6 4.6 0 0 0-1.94-1.51 6 6 0 0 0-2.42-.43q-2.66.1-4.02 2.03a7.5 7.5 0 0 0-1.39 4.36c0 1.95.52 3.55 1.47 4.85q1.48 1.95 4.33 2.03 1.55-.01 2.72-.74a4 4 0 0 0 1.64-1.81h.05v2.29h4.06zm-9.77 11.8q-.02-1.3.69-2.2a2.52 2.52 0 0 1 3.93 0q.73.89.74 2.38c0 .95-.3 1.73-.78 2.33q-.72.9-1.9.9-1.24-.02-1.95-.94a4 4 0 0 1-.73-2.47m18.8 6.79q3.22-.02 5.28-1.73 2.06-1.74 2.12-4.88-.06-3.18-2.12-4.93a7.8 7.8 0 0 0-5.28-1.73c-2.16 0-3.89.6-5.27 1.73q-2.07 1.75-2.12 4.93.05 3.18 2.12 4.88a8 8 0 0 0 5.27 1.73m0-3.07q-1.5-.05-2.2-1.08c-.44-.7-.7-1.51-.65-2.5q0-1.49.65-2.51.64-1.03 2.2-1.09 1.5.06 2.2 1.09c.44.69.7 1.5.66 2.5 0 .95-.22 1.82-.65 2.51q-.66 1.04-2.2 1.08m18.5-10.08a4 4 0 0 0-.74-.08q-.39-.05-.78-.04-1.44.01-2.29.73a5.5 5.5 0 0 0-1.47 1.9h-.04v-2.33h-4.02V27.1h4.4v-5.36q0-1.89.83-2.94a2.9 2.9 0 0 1 2.38-1.04h.73q.37 0 .73.13zm13.79 7.79v-.82a8 8 0 0 0-1.43-4.97c-1-1.39-2.64-2.08-4.97-2.16-2.03 0-3.63.6-4.89 1.72-1.25 1.17-1.9 2.77-1.9 4.89q.05 3.19 2.12 4.89a8 8 0 0 0 5.27 1.77q1.24 0 2.42-.18c.78-.13 1.56-.34 2.25-.6v-3.11c-.65.34-1.34.6-1.99.73q-.99.24-1.9.22a5 5 0 0 1-2.6-.56q-.96-.59-1.16-1.86zm-8.87-2.5a3.2 3.2 0 0 1 .65-1.87q.6-.77 1.77-.77c.87 0 1.52.25 1.86.77q.58.77.56 1.86zM49.12 27.18a9 9 0 0 1-4.59-2.73 8 8 0 0 1-2.12-4.7c-.64-4.24 1.17-8.14 4.67-9.82 1.78-.87 4.15-1.3 6.53-1.3 1.47 0 2.77.26 3.98.48l-.39 3.8s-.3-.09-1.17-.3a10 10 0 0 0-2.46-.3 7 7 0 0 0-4.28 1.25c-2.47 1.9-2.47 6.87.08 8.95 1.56 1.3 4.37 1.73 6.88 1.08l1.17-.3.34 3.84c-.73.18-2.29.48-4.2.48-2.5 0-3.28-.09-4.44-.43" id="path4" style="fill:#ffffff"/><path fill="currentColor" fill-rule="evenodd" d="M197.5 16.3a1.38 1.38 0 1 1-1.95-1.96 1.38 1.38 0 0 1 1.95 1.96m-1.8-1.8a1.15 1.15 0 0 0 0 1.63 1.16 1.16 0 1 0 0-1.63" clip-rule="evenodd" id="path5" style="fill:#ffffff"/><path fill="currentColor" fill-rule="evenodd" d="M197.16 15.9q.02.04.05.06h.02v.1h-.3l-.01-.02-.02-.04v-.02l-.01-.12-.01-.25q0-.12-.1-.16l-.16-.02h-.42v.63h-.27v-1.54h.72q.18 0 .3.05.22.1.22.38 0 .14-.06.23l-.11.11.09.08q.05.07.05.2l.01.2zm-.32-.76q.06-.05.06-.17 0-.15-.1-.19l-.14-.03h-.46v.44h.43q.14 0 .2-.05" clip-rule="evenodd" id="path6" style="fill:#ffffff"/></svg>
